!!!COM: Palestrina, Giovanni Perluigi da
!!!OPR: Missa Tu es pastor ovium
!!!OMD: Credo
!!!OTL: Crucifixus
**kern	**kern	**kern	**kern
*Itenor	*Icalto	*Icant	*Icant
!Tenor	!Altus	!Cantus 2	!Cantus 1
*clefGv2	*clefG2	*clefG2	*clefG2
*k[b-]	*k[b-]	*k[b-]	*k[b-]
*G:dor	*G:dor	*G:dor	*G:dor
*M4/2	*M4/2	*M4/2	*M4/2
=65	=65	=65	=65
0G	0g	0b	0dd
=66	=66	=66	=66
1c	1g	1cc	1ee
1B-	1b-	1dd	1ff
=67	=67	=67	=67
2F	2a	2cc	2ff
1B-	1f	1b-	1dd
2F	2f	2a	2cc
=68	=68	=68	=68
2G	1d	2g	2b-
2d	.	2f	2a
1G	2d	1b-	1dd
.	[2g	.	.
=69	=69	=69	=69
1d	2g]	0a	1dd
.	4f#	.	.
.	4e	.	.
2r	2f#	.	2r
2d	2f#	.	2dd
=70	=70	=70	=70
2.g	0r	0r	2.b-
4g	.	.	4b-
2f	.	.	2a
4d	.	.	[2dd
4e	.	.	.
=71	=71	=71	=71
4f	0r	0r	4dd]
4g	.	.	4ee
4a	.	.	4ff
4f	.	.	4dd
2g	.	.	4ee-
.	.	.	4dd
[2a	.	.	4cc
.	.	.	4b-
=72	=72	=72	=72
2a]	1r	1r	2cc
1g	.	.	4b-
.	.	.	8a
.	.	.	8g
.	1d	1dd	1a
2f#	.	.	.
=73	=73	=73	=73
1g	2.g	2.b-	1g
.	4g	4b-	.
2r	2f	2a	2r
2G	4d	[2dd	2b-
.	4e	.	.
=74	=74	=74	=74
2.d	4f	4dd]	2.a
.	4g	4ee	.
.	4a	4ff	.
4d	4f	4dd	4b-
4c	2g	4ee-	1cc
4B-	.	4dd	.
4A	[2a	4cc	.
4G	.	4b-	.
=75	=75	=75	=75
2F	2a]	2cc	2r
2G	1g	4b-	2dd
.	.	8a	.
.	.	8g	.
1d	.	1a	1dd
.	2f#	.	.
=76	=76	=76	=76
1G	1g	1g	1b
[1c	[1e	[1g	[1cc
=77	=77	=77	=77
1c]	1e]	1g]	1cc]
1A	1f#	1a	1cc
=78	=78	=78	=78
1G	2g	1dd	1.b-
.	2d	.	.
1F	1f	2dd	.
.	.	[2cc	2a
=79	=79	=79	=79
1G	2e	2cc]	2.g
.	1d	2b-	.
.	.	.	4f
1A	.	2.a	2e
.	2c#	.	2e
.	.	4g	.
=80	=80	=80	=80
1d	2d	1f#	2d
.	4r	.	2dd
.	4d	.	.
1r	2f	1r	2dd
.	2g	.	2dd
=81	=81	=81	=81
0r	2a	0r	2cc
.	2f	.	2a
.	2g	.	2b-
.	4a	.	4cc
.	4a	.	4cc
=82	=82	=82	=82
2r	1.b-	0r	1.dd
2G	.	.	.
2B-	.	.	.
2c	4a	.	4cc
.	4g	.	4b-
=83	=83	=83	=83
2d	4f	0r	4a
.	4d	.	4f
2B-	1g	.	2b-
2c	.	.	1a
4d	2f#	.	.
4d	.	.	.
=84	=84	=84	=84
0e-	2g	2r	0g
.	1b-	2g	.
.	.	2b-	.
.	2g	2cc	.
=85	=85	=85	=85
2d	2f	2dd	1b-
2e-	2.g	2b-	.
2e-	.	2cc	2g
.	4a	.	.
2d	[2b-	4dd	2f
.	.	4dd	.
=86	=86	=86	=86
1c	2b-]	1ee-	1cc
.	2a	.	.
2B-	2b-	2dd	2f
2B-	2b-	2dd	2ff
=87	=87	=87	=87
1B-	1b-	1dd	1ff
2c	2g	2cc	2ee
2A	[2a	2cc	2ee
=88	=88	=88	=88
2.B-	4a]	1b-	0dd
.	4g	.	.
.	1g	.	.
4c	.	.	.
1d	.	1a	.
.	2f#	.	.
=89	=89	=89	=89
1G	1g	2b-	2dd
.	.	2g	2b-
1r	1r	2b-	2dd
.	.	2dd	2ff
=90	=90	=90	=90
0r	2r	2cc	2ee
.	2d	1ff	2.dd
.	2f	.	.
.	.	.	4cc
.	2a	[2ee	2cc
=91	=91	=91	=91
0r	2g	4ee]	1dd
.	.	4dd	.
.	2b-	1dd	.
.	1a	.	1ee
.	.	2cc#	.
=92	=92	=92	=92
2r	2b-	1dd	2r
2g	2b-	.	2dd
2f	2a	1r	2dd
2e	2g	.	2cc
=93	=93	=93	=93
2.d	2.a	1r	2.ff
4c	4a	.	4ee
1B-	2b-	2r	2dd
.	2g	2dd	2b-
=94	=94	=94	=94
0r	2f	2dd	2a
.	2e	2cc	2g
.	2.d	2.ff	2.a
.	4c	4ee	4a
=95	=95	=95	=95
0r	2B-	2dd	2b-
.	4G	4b-	2.dd
.	4A	4cc	.
.	4B-	4dd	.
.	4c	4ee-	4cc
.	4d	2dd	[2b-
.	4e-	.	.
=96	=96	=96	=96
1r	1f	1cc	4b-]
.	.	.	8a
.	.	.	8g
.	.	.	2a
2r	2B-	1b-	2b-
2B-	2f	.	2dd
=97	=97	=97	=97
2.B-	2.f	0r	2.dd
4B-	4f	.	4dd
2A	2f	.	2cc
2G	2g	.	2b-
=98	=98	=98	=98
2F	2a	1r	2a
2G	2b-	.	2g
2d	[1a	2r	2f
2d	.	2dd	2ff
=99	=99	=99	=99
2.d	1a]	2.dd	2.ff
4d	.	4dd	4ff
2A	1r	2cc	2ee
2B-	.	2b-	2dd
=100	=100	=100	=100
2f	1r	2a	2cc
2g	.	2g	2b-
2d	2r	2f	2a
4G	[2g	[2b-	[2dd
4A	.	.	.
=101	=101	=101	=101
4B-	2g]	2b-]	2dd]
4c	.	.	.
2d	2a	2a	2dd
2G	2b-	2g	1dd
2G	[2g	[2b-	.
=102	=102	=102	=102
1g	4g]	4b-]	2.dd
.	4a	4cc	.
.	1b-	4dd	.
.	.	4b-	4ee
1f	.	2cc	2ff
.	2a	2cc	2ff
=103	=103	=103	=103
2B-	1b-	2dd	2ff
1B-	.	1ff	1dd
.	1r	.	.
2c	.	2ee	2cc
=104	=104	=104	=104
2d	0r	1dd	1b-
2B-	.	.	.
1f	.	2cc	2a
.	.	2a	2cc
=105	=105	=105	=105
0r	1r	2b-	2dd
.	.	2cc	2ee
.	2r	4dd	4ff
.	.	4cc	4ee
.	[2g	4b-	4dd
.	.	4a	4cc
=106	=106	=106	=106
0r	2g]	2g	2b-
.	2f	2.a	2.cc
.	1e-	.	.
.	.	4g	4b-
.	.	[2g	4b-
.	.	.	8a
.	.	.	8g
=107	=107	=107	=107
1r	1d	2g]	1a
.	.	2f#	.
2r	2r	1g	2g
[2g	[2b-	.	2dd
=108	=108	=108	=108
2g]	2b-]	1r	2ee-
2f	2a	.	2.dd
1e-	1g	1gg	.
.	.	.	8cc
.	.	.	8b-
.	.	.	2cc
=109	=109	=109	=109
1d	2a	1ff	2dd
.	2f	.	2a
1r	2g	1ee-	2b-
.	2a	.	2cc
=110	=110	=110	=110
1B-	4b-	1dd	4dd
.	4a	.	4cc
.	4g	.	4b-
.	4f	.	4a
2c	2e-	1r	2g
2d	2d	.	2f
=111	=111	=111	=111
4e-	2.c	2r	1g
4d	.	.	.
4c	.	2g	.
4B-	4d	.	.
2A	4e	2a	1r
.	4f	.	.
2G	[2g	2b-	.
=112	=112	=112	=112
1A	2g]	1cc	1r
.	2f#	.	.
1G	2g	4b-	2r
.	.	4cc	.
.	2g	4dd	2b-
.	.	4ee	.
=113	=113	=113	=113
1r	2a	1ff	2cc
.	2b-	.	2dd
1c	4cc	2r	4ee-
.	4b-	.	4dd
.	4a	2ee-	4cc
.	4g	.	4b-
=114	=114	=114	=114
2d	2f	2dd	2a
2e-	1g	2cc	2g
1d	.	1dd	1a
.	2f#	.	.
=115	=115	=115	=115
0G	0g	0dd	0b
*-	*-	*-	*-
!!!CDT: 1525/^1526/-1594/2/2
!!!OCY: Italia
!!!AGN: Mass (Parody)
!!!AST: renaissance, vocal
!!!ASW: Motet (Palestrina)
!!!PWK: Masses, Book 7
!!!RNB: Cadence finals: D
!!!YOR: Le Opere Complete, v. 23, p. 115
!!!YOO: Rome, Italy: Fratelli Scalera
!!!END: 1992//
!!!EED: John Miller
!!!YEC: Copyright 2000, John Miller
!!!YEN: United States of America
!!!YEM: Rights to all derivative electronic formats reserved.
!!!YEM: Refer to licensing agreement for further details.
!!!YEM: This file must be accompanied by the licensing agreement.
!!!YEM: A copy of the licensing agreement may be found at http://www.music-cog.ohio-state.edu/HumdrumDatabases/Palestrina/license.txt
!!!EMD: converted to Humdrum by Bret Aarden
